src/render/svg/gradle.svg

<svg class="icon" viewBox="0 0 1024 1024" version="1.1" xmlns="http://www.w3.org/2000/svg">
  <path
    d="M968.533333 183.466667c-64-64-162.133333-64-226.133333-4.266667-4.266667 4.266667-4.266667 8.533333-4.266667 12.8 0 4.266667 0 8.533333 4.266667 12.8l21.333333 21.333333c4.266667 4.266667 12.8 4.266667 21.333334 0 17.066667-12.8 34.133333-17.066667 55.466666-17.066666 51.2 0 93.866667 42.666667 93.866667 93.866666 0 25.6-8.533333 46.933333-25.6 64-128 128-302.933333-230.4-691.2-46.933333-25.6 12.8-38.4 42.666667-25.6 68.266667v4.266666L256 507.733333c12.8 25.6 46.933333 34.133333 72.533333 21.333334l29.866667-17.066667c34.133333-21.333333 64-42.666667 93.866667-68.266667 4.266667-4.266667 17.066667-4.266667 21.333333 0 8.533333 4.266667 8.533333 12.8 4.266667 21.333334l-4.266667 4.266666c-29.866667 25.6-64 51.2-98.133333 72.533334l-29.866667 12.8c-12.8 8.533333-25.6 12.8-42.666667 12.8-29.866667 0-59.733333-17.066667-72.533333-42.666667L166.4 413.866667c-119.466667 85.333333-196.266667 251.733333-153.6 460.8 0 8.533333 8.533333 12.8 17.066667 12.8h72.533333c8.533333 0 12.8-4.266667 17.066667-12.8 8.533333-59.733333 59.733333-98.133333 119.466666-89.6 46.933333 4.266667 85.333333 42.666667 89.6 89.6 0 8.533333 8.533333 12.8 17.066667 12.8h68.266667c8.533333 0 12.8-4.266667 17.066666-12.8 8.533333-59.733333 59.733333-98.133333 119.466667-89.6 46.933333 4.266667 85.333333 42.666667 89.6 89.6 0 8.533333 8.533333 12.8 17.066667 12.8H725.333333c8.533333 0 17.066667-8.533333 17.066667-17.066667 0-98.133333 29.866667-209.066667 102.4-264.533333 251.733333-196.266667 183.466667-362.666667 123.733333-422.4z m-264.533333 294.4l-51.2-25.6c0-17.066667 12.8-29.866667 29.866667-29.866667 17.066667 0 29.866667 12.8 29.866666 29.866667 4.266667 12.8 0 21.333333-8.533333 25.6z"
    ></path>
</svg>

<svg xmlns="http://www.w3.org/2000/svg" class="icon" viewBox="0 0 1024 1024">
    <path d="M968.53333 183.46667c-64-64-162.13333-64-226.13333-4.26667-4.26667 4.26667-4.26667 8.53333-4.26667 12.8s0 8.53333 4.26667 12.8l21.33333 21.33333c4.26667 4.26667 12.8 4.26667 21.33334 0 17.06666-12.8 34.13333-17.06666 55.46666-17.06666 51.2 0 93.86667 42.66666 93.86667 93.86666q0 38.4-25.6 64c-128 128-302.93333-230.4-691.2-46.93333-25.6 12.8-38.4 42.66667-25.6 68.26667v4.26666l64 115.2c12.8 25.6 46.93333 34.13334 72.53333 21.33334L358.4 512c34.13333-21.33333 64-42.66667 93.86667-68.26667 4.26666-4.26666 17.06666-4.26666 21.33333 0 8.53333 4.26667 8.53333 12.8 4.26667 21.33334L473.6 469.33333c-29.86667 25.6-64 51.2-98.13333 72.53334l-29.86667 12.8c-12.8 8.53333-25.6 12.8-42.66667 12.8C273.06667 567.46667 243.2 550.4 230.4 524.8l-64-110.93333C46.93333 499.2-29.86667 665.6 12.8 874.66667c0 8.53333 8.53333 12.8 17.06667 12.8H102.4c8.53333 0 12.8-4.26667 17.06667-12.8 8.53333-59.73334 59.73333-98.13334 119.46666-89.6 46.93334 4.26666 85.33334 42.66666 89.6 89.6 0 8.53333 8.53334 12.8 17.06667 12.8h68.26667c8.53333 0 12.8-4.26667 17.06666-12.8 8.53334-59.73334 59.73334-98.13334 119.46667-89.6 46.93333 4.26666 85.33333 42.66666 89.6 89.6 0 8.53333 8.53333 12.8 17.06667 12.8h68.26666c8.53334 0 17.06667-8.53334 17.06667-17.06667 0-98.13333 29.86667-209.06667 102.4-264.53333C1096.53333 409.6 1028.26667 243.2 968.53333 183.46667M704 477.86667l-51.2-25.6C652.8 435.2 665.6 422.4 682.66667 422.4s29.86666 12.8 29.86666 29.86667c4.26667 12.8 0 21.33333-8.53333 25.6"/>
</svg>
